!!!!SEGMENT: pl-wtm--r-1427--001-005_stefani-jozef--no-19-offertorium.krn
!!!cenid: 18xx:2441
!!!COM: Stefani, Józef
!!!COM-rismID: pe30024097
!!!CDT: 1800/04/16-1876/03/19
!!!CNT: Polish
!!!OPR: No. 19
!!!OTL: Offertorium
!!!OMV: 005
!!!PDT:
!!!AGN: Sacred; Mass
!!!YEC: Copyright 2022 Narodowy Instytut Fryderyka Chopina (https://polishscores.org)
!!!YEM: License CC-BY-4.0 (https://creativecommons.org/licenses/by/4.0)
!!!SMS-siglum: PL-Wtm
!!!SMS-shelfmark: R 1427
!!!SMS-shelfwork: 001-005 M
!!!SMS-variant:
!!!SMS-altvar:
!!!NIFC-rismSourceID: 1001116126
!!!NIFC-rismChildID: 1001116126
!!!NIFC-islandoraID:
!!!URL-pdf-islandora:
!!!URL-scan:
!!!IIIF:
!!!ONB-nifc: UWAGA: części Mszy: 1. Kyrie, 2. Gloria, 3. Graduale, 4. Credo, 5. Offertorium. 6. Sanctus, 7. Benedictus, 8. Agnus Dei, 9. Dona nobis
!!!OMD: Andantino.
!!!AIN: 2 organ 1 vox
!!!key:
**kern	**kern	**kern	**text	**text	**dynam
*part3	*part2	*part1	*	*	*
*staff3	*staff2	*staff1	*	*	*
*Iorgan	*Iorgan	*Ivox	*	*	*
*I"Organy	*I"Organy	*I"Głos	*	*	*
*>[A,B,B,C]	*>[A,B,B,C]	*>[A,B,B,C]	*>[A,B,B,C]	*>[A,B,B,C]	*>[A,B,B,C]
*>A	*>A	*>A	*>A	*>A	*>A
*clefF4	*clefG2	*clefG2	*	*	*
*k[f#c#g#]	*k[f#c#g#]	*k[f#c#g#]	*	*	*
*A:	*A:	*A:	*	*	*
*M3/4	*M3/4	*M3/4	*	*	*
*all\right	*all\right	*all\right	*	*	*
4G# 4E\	4ee 4e/	4r	.	.	.
=1	=1	=1	=1	=1	=1
4.A 4.F#\	4.dd#X 4.d#X/	2.r	.	.	.
8r	8r	.	.	.	.
4B 4G#\	4ddn 4dn/	.	.	.	.
=2	=2	=2	=2	=2	=2
4.A\	4.cc# 4.c#/	2.r	.	.	.
8r	(16b/LL	.	.	.	.
.	16cc#/JJ	.	.	.	.
4B 4F# 4D\	16ee/LL	.	.	.	.
.	16dd/	.	.	.	.
.	16f#/	.	.	.	.
.	16b/JJ)	.	.	.	.
!!LO:LB:g=original
=3	=3	=3	=3	=3	=3
*2\right	*	*	*	*	*
2c# 2A 2E\	8.a/L	2.r	.	.	.
.	16e/Jk	.	.	.	.
.	4cc#/	.	.	.	.
4d 4G# 4E\	4b/	.	.	.	.
=4	=4	=4	=4	=4	=4
4c# 4A\	4a/	4r	.	.	.
!	!LO:TX:b:t=V&colon; S&colon;	!	!	!	!
4B 4E\	4b 4g#/	4r	.	.	.
!!LO:PB:g=original
=||	=||	=||	=||	=||	=||
*>B	*>B	*>B	*>B	*>B	*>B
!	!	!LO:TX:b:t=P::problem=usunięty fragment 3. zwrotki&colon; 3) Któ	!	!	!
!	!LO:TX:b:t=[segno]	!LO:TX:a:t=[segno]	!	!	!
!	!	!LO:TX:a:t=dolce	!	!	!
8.AL 8.AA\	8.a/L	8.a/	1.) Przyj-	2.) Kę-	.
16E\Jk	16bJk 16g#/	16b/	-mij	-dy	.
=5	=5	=5	=5	=5	=5
*	*^	*	*	*	*
4.A 4.AA\	4cc# 4a/	4ryy	4cc#\	Bo-	Two-	.
.	8a 8c#/	4ryy	8a/	-że	-je	.
8r	8r	.	8r	.	.	.
8.BB/L	8.dd/L	4f#\	8.dd\	tę	słoń-	.
16D/Jk	16b/Jk	.	16b\	o-	-ce	.
*	*v	*v	*	*	*	*
=6	=6	=6	=6	=6	=6
4E\	4g# 4e 4d 4B/	4g#/	-fia-	świe-	.
8AA/	8a 8e 8c#/	8a/	-rę	-ci	.
8r	8r	8r	.	.	.
8.F#\L	8.a/L	8.a/	Któ-	Tam	.
16E\Jk	16g#/Jk	16g#/	-rą	gdzie	.
!!LO:LB:g=original
=7	=7	=7	=7	=7	=7
*	*^	*	*	*	*
*	*	*2\right	*	*	*	*
2D\	4.f#/	2d\	4.f#/	za	ludz-	.
.	8b/	.	8b\	nas	-kie	.
8.BB/L	8.ddL 8.f#/	4ryy	8.dd\	Ka-	ser-	.
16D/Jk	16bJk 16d/	.	16b\	-płan	-ca	.
*	*v	*v	*	*	*	*
=8	=8	=8	=8	=8	=8
4E\	4a 4e 4c#/	4a/	świę-	bi-	.
8EE/	8g# 8B/	8g#/	-ci	-ją	.
8r	8r	8r	.	.	.
4r	4r	8.b\	Wzma-	Niech	.
.	.	16cc#\	-cniaj	Cię	.
=9	=9	=9	=9	=9	=9
4.D#X\	8r	4b/	wie-	zna-	.
.	8aL 8f# 8B/	.	.	.	.
.	8aJ 8f# 8B/	8f#/	-cznie	-ią	.
8r	8r	8r	.	.	.
4r	4r	8.b/	na-	Two-	.
.	.	16a/	-szą	-je	.
!!LO:LB:g=original
=10	=10	=10	=10	=10	=10
4.E 4.EE/	8r	4f##X/	wia-	dzie-	>
.	8f##XL 8e 8B/	.	.	.	]
.	8g#J 8e 8B/	8g#/	-rę	-ci	.
8r	8r	8r	.	.	.
4E 4BB 4GG#/	8.b/L	8.b/	Wspie-	Niech	.
.	16e/Jk	16e/	-raj	jak	.
=11	=11	=11	=11	=11	=11
2E 2C# 2AA/	4.ee 4.e/	(4.ee\	wszy-	bra-	.
.	8cc#\	8cc#\)	.	.	.
4F# 4C# 4AA/	(8a/L	(>8a/L	-stkie	-cia	.
.	8f#/J)	8f#/J)	.	.	.
=12	=12	=12	=12	=12	=12
4G# 4BB\	4g# 4e 4B/	(>4.g#/	do-	w zgo-	.
4r	4r	.	.	.	.
.	.	(>16cc#/LL	.	.	.
.	.	16b/JJ))	.	.	.
4A 4BB\	4f# 4d#X 4B/	(>8f#/L	-bre	-dzie	.
.	.	16cc#/L	.	.	.
.	.	16b/JJ)	.	.	.
!!LO:LB:g=original
=13	=13	=13	=13	=13	=13
4.G# 4.E\	4.e 4.B/	4b/	chę-	ży-	.
.	.	8e/	-ci	-ią.	.
8r	8r	8r	.	.	.
*>C	*>C	*>C	*>C	*>C	*>C
!	!LO:TX:b:t=[segno]	!LO:TX:a:t=[segno]	!	!	!
8.AL 8.AA\	8.a/L	8.a/	3.) Któ-	.	.
16E\Jk	16bJk 16g#/	16b/	-rzy	.	.
=14	=14	=14	=14	=14	=14
*	*^	*	*	*	*
4.A 4.AA\	4ccn 4a/	4ryy	4ccn\	iuż	.	.
.	8a 8cn/	4ryy	8a/	są,	.	.
8r	8r	.	8r	.	.	.
8.BB/L	8.dd/L	4fn\	8.dd\	przy	.	.
16D/Jk	16b/Jk	.	16b\	Twym	.	.
*	*v	*v	*	*	*	*
=15	=15	=15	=15	=15	=15
4E\	4g# 4e 4d 4B/	4g#/	tro-	.	.
!	!LO:SIC:v:n=3:o=8a 8e 8c#/	!	!	!	!
8AA/	8cn/	8a/	-nie	.	.
8r	8r	8r	.	.	.
8.F#\L	8.a/L	8.a/	Ci	.	.
16E\Jk	16g#/Jk	16g#/	co	.	.
!!LO:PB:g=original
=16	=16	=16	=16	=16	=16
*	*^	*	*	*	*
2D\	4.f#/	2d\	4.f#/	ży-	.	.
.	8b/	.	8b/	-ją	.	.
8.BB/L	8.ddL 8.f#/	4ryy	8.dd\	do	.	.
16D/Jk	16bJk 16d/	.	16b\	tej	.	.
*	*v	*v	*	*	*	*
=17	=17	=17	=17	=17	=17
4E\	4a 4e 4c#/	4a/	chwi-	.	.
8EE/	8g# 8e 8B/	8g#/	-li	.	.
8r	8r	8r	.	.	.
4r	4r	8.b\	Co	.	.
.	.	16cc#\	po	.	.
=18	=18	=18	=18	=18	=18
4.D#X\	8r	4b\	na-	.	.
.	8aL 8f# 8B/	.	.	.	.
.	8aJ 8f# 8B/	8f#/	-szym	.	.
8r	8r	8r	.	.	.
4r	4r	8.b/	przyj-	.	.
.	.	16a/	-dą	.	.
!!LO:LB:g=original
=19	=19	=19	=19	=19	=19
*^	*	*	*	*	*
4.E 4.EE/	4ryy	8r	4f##X/	zgo-	.	.
.	.	8f##XL 8e 8B/	.	.	.	.
.	4ryy	8bJ 8e 8B/	8g#/	-nie	.	.
8r	.	8r	8r	.	.	.
4G# 4E/	4Dn\	8.b/L	8.b/	Spraw	.	.
.	.	16e/Jk	16e/	by	.	.
*v	*v	*	*	*	*	*
=20	=20	=20	=20	=20	=20
2A 2E 2C#\	(4.ee\	((4.ee\	Bo-	.	.
.	16dd#X\LL	16dd#X\LL	.	.	.
.	16ee\JJ)	16ee\JJ)	.	.	.
4B 4F# 4D\	8ddn\L	(8ddn\L	-że	.	.
.	8b\J	8b\J))	.	.	.
=21	=21	=21	=21	=21	=21
4.c# 4.A 4.E\	4.a/	(>4.g#/	w To-	.	.
8r	8r	16g#/LL	.	.	.
.	.	16a/JJ	.	.	.
4d 4B 4E\	4g# 4e/	8b/)	.	.	.
.	.	8g#/	-bie	.	.
!!LO:LB:g=original
=22	=22	=22	=22	=22	=22
*^	*	*	*	*	*
4d 4B 4E\	4ryy	4b 4g#/	4b/	ży-	.	.
8c# 8A\	4ryy	8a/	8a/	-li.	.	.
8r	.	8r	8r	.	.	.
4B/	4G#\	4ee 4e/	4r	.	.	.
*v	*v	*	*	*	*	*
=23	=23	=23	=23	=23	=23
4.A 4.F#\	4.dd#X 4.d#X/	2.r	.	.	.
8r	8r	.	.	.	.
4B 4G#\	4ddn 4dn/	.	.	.	.
=24	=24	=24	=24	=24	=24
4.A\	4.cc# 4.c#/	2.r	.	.	.
8r	(16b/LL	.	.	.	.
.	16cc#/JJ	.	.	.	.
4B 4F# 4D\	16ee/LL	.	.	.	.
.	16dd/	.	.	.	.
.	16f#/	.	.	.	.
.	16b/JJ)	.	.	.	.
!!LO:LB:g=original
=25	=25	=25	=25	=25	=25
2c# 2A 2E\	8.a/L	2.r	.	.	.
.	16e/Jk	.	.	.	.
.	4cc#/	.	.	.	.
4d 4G# 4E\	4b/	.	.	.	.
=26	=26	=26	=26	=26	=26
4d 4B 4E\	4g#/	4r	.	.	.
!	!LO:TX:b:i:t=Seque Sanctus	!	!	!	!
8c# 8A\	8a/	4r	.	.	.
8r	8r	.	.	.	.
==	==	==	==	==	==
*-	*-	*-	*-	*-	*-
!!!system-decoration: s1{(s2,s3)}
!!!RDF**kern: > = above
!!!RDF**kern: < = below
!!!ENC: Marta Lawrence
!!!END: 2021-06-27
!!!ENC: Katarzyna Serwa
!!!END: 2021-06-20
